img/era/modern.svg

<?xml version="1.0" encoding="UTF-8" standalone="no"?>
<!-- Uploaded to: SVG Repo, www.svgrepo.com, Transformed by: SVG Repo Mixer Tools -->

<svg
   fill="#000000"
   version="1.1"
   id="Layer_1"
   viewBox="0 0 290.63 290.63"
   xml:space="preserve"
   width="800px"
   height="800px"
   stroke="#000000"
   stroke-width="5.521894"
   sodipodi:docname="modern.svg"
   inkscape:version="1.2.2 (b0a8486, 2022-12-01)"
   xmlns:inkscape="http://www.inkscape.org/namespaces/inkscape"
   xmlns:sodipodi="http://sodipodi.sourceforge.net/DTD/sodipodi-0.dtd"
   xmlns="http://www.w3.org/2000/svg"
   xmlns:svg="http://www.w3.org/2000/svg"><defs
   id="defs4172" /><sodipodi:namedview
   id="namedview4170"
   pagecolor="#ffffff"
   bordercolor="#666666"
   borderopacity="1.0"
   inkscape:showpageshadow="2"
   inkscape:pageopacity="0.0"
   inkscape:pagecheckerboard="0"
   inkscape:deskcolor="#d1d1d1"
   showgrid="false"
   inkscape:zoom="0.53125"
   inkscape:cx="0"
   inkscape:cy="473.41176"
   inkscape:window-width="1920"
   inkscape:window-height="1016"
   inkscape:window-x="0"
   inkscape:window-y="27"
   inkscape:window-maximized="1"
   inkscape:current-layer="Layer_1" />

<g
   id="SVGRepo_bgCarrier"
   stroke-width="0" />

<g
   id="SVGRepo_tracerCarrier"
   stroke-linecap="round"
   stroke-linejoin="round" />



<g
   id="g5039"
   transform="matrix(0.7247661,0,0,0.72476608,39.996701,39.997067)"
   style="stroke-width:2.76784">
	<g
   id="g5037"
   style="stroke-width:2.76784">
		<g
   id="g5035"
   style="stroke-width:2.76784">
			<rect
   x="23.438"
   y="243.75"
   width="9.375"
   height="9.375"
   id="rect5007"
   style="stroke-width:2.76784" />
			<rect
   x="46.875999"
   y="243.75"
   width="9.375"
   height="9.375"
   id="rect5009"
   style="stroke-width:2.76784" />
			<rect
   x="23.438"
   y="192.188"
   width="9.375"
   height="9.375"
   id="rect5011"
   style="stroke-width:2.76784" />
			<rect
   x="46.875999"
   y="192.188"
   width="9.375"
   height="9.375"
   id="rect5013"
   style="stroke-width:2.76784" />
			<rect
   x="140.62601"
   y="173.438"
   width="9.375"
   height="28.125"
   id="rect5015"
   style="stroke-width:2.76784" />
			<rect
   x="112.501"
   y="173.438"
   width="9.375"
   height="28.125"
   id="rect5017"
   style="stroke-width:2.76784" />
			<rect
   x="84.375999"
   y="178.125"
   width="9.375"
   height="23.438"
   id="rect5019"
   style="stroke-width:2.76784" />
			<rect
   x="196.87601"
   y="178.125"
   width="9.375"
   height="23.438"
   id="rect5021"
   style="stroke-width:2.76784" />
			<rect
   x="168.75101"
   y="173.438"
   width="9.375"
   height="28.125"
   id="rect5023"
   style="stroke-width:2.76784" />
			<path
   d="m 281.25,154.688 v -9.375 h -9.375 v 9.375 h -51.563 v -14.063 h 9.375 v -12.516 l -14.063,-5.789 v -9.82 h -9.375 v 5.958 l -18.75,-7.72 v -31.05 h 9.375 V 70.313 H 187.5 v -18.75 h -1.397 C 182.915,44.335 174.764,34.74 159.375,33.085 V 14.063 H 150 V 0 h -9.375 v 14.063 h -9.375 v 19.022 c -15.389,1.655 -23.541,11.25 -26.728,18.478 h -1.397 v 18.75 H 93.75 v 9.375 h 9.375 v 31.05 l -18.75,7.72 V 112.5 H 75 v 9.82 l -14.063,5.789 v 12.516 h 9.375 v 14.063 H 18.751 v -9.375 H 9.376 v 9.375 H 0.001 V 290.626 H 290.626 V 154.688 Z M 70.313,281.25 H 9.376 v -9.375 h 60.938 v 9.375 z m 0,-18.75 H 9.376 V 234.375 H 70.314 V 262.5 Z m 0,-37.5 H 56.251 V 210.937 H 46.876 V 225 H 32.813 V 210.937 H 23.438 V 225 H 9.376 V 182.812 H 70.314 V 225 Z m 0,-51.562 H 9.376 v -9.375 h 60.938 v 9.375 z M 175.276,51.563 h -7.327 c -0.586,-2.442 -1.458,-5.053 -2.662,-7.542 4.88,1.865 8.029,4.841 9.989,7.542 z m -34.65,-28.125 h 9.375 v 9.375 h -9.375 z m 0,18.75 h 9.375 c 4.298,0 6.806,5.175 8.137,9.375 h -25.669 c 1.318,-4.201 3.816,-9.375 8.157,-9.375 z m -15.292,1.842 c -1.205,2.484 -2.077,5.091 -2.658,7.533 h -7.322 c 1.961,-2.691 5.11,-5.668 9.98,-7.533 z m -12.833,16.908 h 65.625 v 9.375 h -65.625 z m 65.625,18.75 v 27.192 l -4.688,-1.931 V 79.688 Z m -14.063,0 v 21.398 l -18.75,-7.72 -18.75,7.72 V 79.688 Z m -51.562,0 h 4.688 v 25.261 l -4.688,1.931 z M 89.063,281.25 h -9.375 v -9.375 h 9.375 z m 23.438,0 H 98.438 v -9.375 H 112.5 v 9.375 z m 28.125,0 h -18.75 v -9.375 h 18.75 z m 28.125,0 h -18.75 v -9.375 h 18.75 z m 23.437,0 h -14.063 v -9.375 h 14.063 z m 18.75,0 h -9.375 v -9.375 h 9.375 z m 0,-18.75 h -9.375 v -14.063 h -9.375 V 262.5 H 178.125 V 243.75 H 168.75 V 262.5 H 150 v -18.75 h -9.375 v 18.75 h -18.75 V 243.75 H 112.5 V 262.5 H 98.438 V 248.437 H 89.063 V 262.5 h -9.375 v -32.813 h 18.75 v 9.375 h 9.375 v -9.375 h 18.75 v 9.375 h 9.375 v -9.375 h 18.75 v 9.375 h 9.375 v -9.375 h 18.75 v 9.375 h 9.375 v -9.375 h 18.75 z M 79.688,220.313 v -60.938 h 18.75 v 60.938 z m 28.125,0 v -60.938 h 18.75 v 60.938 z m 28.125,0 v -60.938 h 18.75 v 60.938 z m 28.125,0 v -60.938 h 18.75 v 60.938 z m 46.875,0 h -18.75 v -60.938 h 18.75 z m 0,-70.313 H 79.688 v -9.375 h 131.25 z m -88.157,-18.75 22.533,-9.014 22.532,9.014 z m 88.157,0 h -17.846 l -47.78,-19.111 -47.78,19.111 H 79.688 77.935 l 67.378,-27.741 67.378,27.741 z m 9.375,32.813 h 60.938 v 9.375 h -60.938 z m 0,18.749 h 60.938 V 225 h -14.062 v -14.063 h -9.375 V 225 h -14.063 v -14.063 h -9.375 V 225 h -14.063 z m 60.939,98.438 h -60.938 v -9.375 h 60.938 z m 0,-18.75 h -60.938 v -28.125 h 60.938 z"
   id="path5025"
   style="stroke-width:2.76784" />
			<rect
   x="257.81299"
   y="243.75"
   width="9.375"
   height="9.375"
   id="rect5027"
   style="stroke-width:2.76784" />
			<rect
   x="234.37601"
   y="243.75"
   width="9.375"
   height="9.375"
   id="rect5029"
   style="stroke-width:2.76784" />
			<rect
   x="257.81299"
   y="192.188"
   width="9.375"
   height="9.375"
   id="rect5031"
   style="stroke-width:2.76784" />
			<rect
   x="234.37601"
   y="192.188"
   width="9.375"
   height="9.375"
   id="rect5033"
   style="stroke-width:2.76784" />
		</g>
	</g>
</g></svg>

<!DOCTYPE svg PUBLIC "-//W3C//DTD SVG 1.1//EN" "http://www.w3.org/Graphics/SVG/1.1/DTD/svg11.dtd">
<!-- Uploaded to: SVG Repo, www.svgrepo.com, Transformed by: SVG Repo Mixer Tools -->
<svg fill="#000000" version="1.1" id="Layer_1" xmlns="http://www.w3.org/2000/svg" xmlns:xlink="http://www.w3.org/1999/xlink" viewBox="0 0 290.63 290.63" xml:space="preserve" width="800px" height="800px" stroke="#000000" stroke-width="5.521894">
<g id="SVGRepo_bgCarrier" stroke-width="0"/>
<g id="SVGRepo_tracerCarrier" stroke-linecap="round" stroke-linejoin="round"/>
<g id="SVGRepo_iconCarrier"> <g> <g> <g> <rect x="23.438" y="243.75" width="9.375" height="9.375"/> <rect x="46.876" y="243.75" width="9.375" height="9.375"/> <rect x="23.438" y="192.188" width="9.375" height="9.375"/> <rect x="46.876" y="192.188" width="9.375" height="9.375"/> <rect x="140.626" y="173.438" width="9.375" height="28.125"/> <rect x="112.501" y="173.438" width="9.375" height="28.125"/> <rect x="84.376" y="178.125" width="9.375" height="23.438"/> <rect x="196.876" y="178.125" width="9.375" height="23.438"/> <rect x="168.751" y="173.438" width="9.375" height="28.125"/> <path d="M281.25,154.688v-9.375h-9.375v9.375h-51.563v-14.063h9.375v-12.516l-14.063-5.789v-9.82h-9.375v5.958l-18.75-7.72 v-31.05h9.375v-9.375h-9.374v-18.75h-1.397c-3.188-7.228-11.339-16.823-26.728-18.478V14.063h-9.375V0h-9.375v14.063h-9.375 v19.022c-15.389,1.655-23.541,11.25-26.728,18.478h-1.397v18.75h-9.375v9.375h9.375v31.05l-18.75,7.72V112.5h-9.375v9.82 l-14.063,5.789v12.516h9.375v14.063H18.751v-9.375H9.376v9.375H0.001v135.938h290.625V154.688H281.25z M70.313,281.25H9.376 v-9.375h60.938V281.25z M70.313,262.5H9.376v-28.125h60.938V262.5z M70.313,225H56.251v-14.063h-9.375V225H32.813v-14.063h-9.375 V225H9.376v-42.188h60.938V225z M70.313,173.438H9.376v-9.375h60.938V173.438z M175.276,51.563h-7.327 c-0.586-2.442-1.458-5.053-2.662-7.542C170.167,45.886,173.316,48.862,175.276,51.563z M140.626,23.438h9.375v9.375h-9.375 V23.438z M140.626,42.188h9.375c4.298,0,6.806,5.175,8.137,9.375h-25.669C133.787,47.362,136.285,42.188,140.626,42.188z M125.334,44.03c-1.205,2.484-2.077,5.091-2.658,7.533h-7.322C117.315,48.872,120.464,45.895,125.334,44.03z M112.501,60.938 h65.625v9.375h-65.625V60.938z M178.126,79.688v27.192l-4.688-1.931V79.688H178.126z M164.063,79.688v21.398l-18.75-7.72 l-18.75,7.72V79.688H164.063z M112.501,79.688h4.688v25.261l-4.688,1.931V79.688z M89.063,281.25h-9.375v-9.375h9.375V281.25z M112.501,281.25H98.438v-9.375h14.062V281.25z M140.626,281.25h-18.75v-9.375h18.75V281.25z M168.751,281.25h-18.75v-9.375 h18.75V281.25z M192.188,281.25h-14.063v-9.375h14.063V281.25z M210.938,281.25h-9.375v-9.375h9.375V281.25z M210.938,262.5 h-9.375v-14.063h-9.375V262.5h-14.063v-18.75h-9.375v18.75h-18.75v-18.75h-9.375v18.75h-18.75v-18.75h-9.375v18.75H98.438 v-14.063h-9.375V262.5h-9.375v-32.813h18.75v9.375h9.375v-9.375h18.75v9.375h9.375v-9.375h18.75v9.375h9.375v-9.375h18.75v9.375 h9.375v-9.375h18.75V262.5z M79.688,220.313v-60.938h18.75v60.938H79.688z M107.813,220.313v-60.938h18.75v60.938H107.813z M135.938,220.313v-60.938h18.75v60.938H135.938z M164.063,220.313v-60.938h18.75v60.938H164.063z M210.938,220.313h-18.75 v-60.938h18.75V220.313z M210.938,150H79.688v-9.375h131.25V150z M122.781,131.25l22.533-9.014l22.532,9.014H122.781z M210.938,131.25h-17.846l-47.78-19.111l-47.78,19.111H79.688h-1.753l67.378-27.741l67.378,27.741H210.938z M220.313,164.063 h60.938v9.375h-60.938V164.063z M220.313,182.812h60.938V225h-14.062v-14.063h-9.375V225h-14.063v-14.063h-9.375V225h-14.063 V182.812z M281.252,281.25h-60.938v-9.375h60.938V281.25z M281.252,262.5h-60.938v-28.125h60.938V262.5z"/> <rect x="257.813" y="243.75" width="9.375" height="9.375"/> <rect x="234.376" y="243.75" width="9.375" height="9.375"/> <rect x="257.813" y="192.188" width="9.375" height="9.375"/> <rect x="234.376" y="192.188" width="9.375" height="9.375"/> </g> </g> </g> </g>
</svg>
